X:1
T:Wail
S:The Complete Bud Powell on Blue Note, vol.1
M:4/4
L:1/8
C:Bud Powell
Q:1/4=290
K:Eb
%%text (up)
P:A
B,CD || "Eb6"FDEF "(Cm7)"GBcf | "Fm7"zfe2 "Abm6"z3^c | "Gm7"d_d=c_c "Cm7"B^FGB | "Fm7"A=EGF "Bb7"zB, zE |
"Eb"zF zD "-/G"EFGB | "Ab6"=BcAF "Adim7"^F=Ad_B | "Eb/Bb"z3_d "Ab7"cAG_c | "Gb7"B_GFA "Bb7"=G=Ez2 ||
P:A
"Eb6"zDEF "(Cm7)"GBcf | "Fm7"zf e_c "Abm6"zf zf | "Gm7"eB zf "Cm7"zfe=A- | "F7"(3ABd e_A "Bb7"z3 ^f |
"Eb6"gedc "Eb7/G"_dGBd | "Ab6"cB_cB "Abm7"A_GFE | "Eb/Bb"=G2G2- "Bb7"G2A^F | "Eb6"GEz2 z6 ||
P:B
"Db7#11"BBGF B2GB | GFBB GBGF | "C7#11"=AA^F=E AFz2 | z8 |
"B7#11"_AA=FE A2FA | FEAA FAFE | "Bb7#11"GG=ED GEz2 | z4 zB,CD ||
P:A
"Eb6"FDEF "(Cm7)"GBcf | "Fm7"zf e_c "Abm6"zf zf | "Gm7"eB zf "Cm7"zfe=A- | "F7"(3ABd e_A "Bb7"z3 ^f |
"Eb6"gedc "Eb7/G"_dGBd | "Ab6"cB_cB "Abm7"A_GFE | "Eb/Bb"=G2G2- "Bb7"G2A^F | "Eb6"GEz2 z6 |]
